X:252
T:Stanley Ferry Hornpipe. Le4.252
L:1/8
B:L.Leadley MS#4 c1850
Z:vmp.Mike Hicken 2016 www.village-music-project.org.uk
N: This is tune 43 of The Fiddler of Helperby.
N: * This note is a quaver in the original.
M:C|
Q:1/4=120
K:A
cd|e^def bgec|AGAc E2 (E/F/G)|AGBA cBdc|efga B2 (cd)|
e^def bgec|AGAc E2 ef|bagf gfed|c2A2A2 :|
K:E
|: "NB no key change in MS"GA|(Bc).B.A GB e2|(fg).f.e defg|(ag).f.e (gf).e.d|eBgf e2 GA|
BcBA GB e3/ "*"e/|(fg).f.e (de).f.g|(ag).f.e (gf).e.d|eBgf e2 "^D Capo":|

